X:1
T:Title
%%score ( 1 2 3 ) { ( 4 6 ) | 5 }
L:1/8
M:4/4
K:Eb
V:1 treble nm="Grand Piano"
V:2 treble 
V:3 treble 
V:4 bass nm="Grand Piano"
V:6 bass 
V:5 bass 
V:1
 z4[Q:1/4=98] [EG]3 [EG] | [EA]2 [EG]2 [B,F]2 EF | [B,E]2 [B,D]2 [DA]3 [EG] | %3
w: Noch~ ein~|Weil chen~ still~ ver *|trau e~ Dem,~ der~|
 [Ec]2 [EB]2 [GB][FA][FA][EG] | [DF]2 z2 [EG]3 [EG] | [EA]2 [EG]2 [B,F]2 EF | %6
w: dei ne~ Pfa * de~ *|lenkt,~ noch~ ein~|Weil chen~ auf~ Ihn~ *|
 [B,E]2 [B,D]2 [B,F]2 G=A | [DB]2 [CE]2 [B,D]2 [CE][=A,C] | B,2 z2 [DA]3 [DF] | %9
w: bau e,~ der~ dem~ *|M� den~ St�r ke~ *|schenkt.~ Sieh,~ des~|
 [EG]2 [EB]2 [GB][FA][FA][EG] | [DF]2 z2 B3 B | dcBA [EG]2 [DF]2 | z4 B4 | dcBA [EG]2 D->[DF] | %14
w: Va ter hau * ses~ *|Ruh~ winkt~ dem~|Pil * ger~ * freund lich~|winkt~|Pil * ger~ * freund lich~ *|
 [B,E]2 z2 z4 |] %15
w: zu.~|
V:2
 x8 | z4 z2 B,2 | x8 | x8 | x8 | z4 z2 B,2 | z4 z2 E2 | x8 | x8 | x8 | z4 E2 E2 | E2 F2 z4 | %12
w: ||||||||||||
 [EG]2 z2 E2 z e | E2 F2 z2 G2 | x8 |] %15
w: * * dem~|||
V:3
 x8 | x8 | x8 | x8 | x8 | x8 | x8 | x8 | x8 | x8 | x8 | x8 | z4 z2 E2 | x8 | x8 |] %15
V:4
 z4 B,3 B, | C2 B,2 A,2 G,A, | G,2 F,2 B,3 B, | z4 z2 B,2 | B,2 z2 B,3 B, | C2 B,2 A,2 G,A, | %6
 G,2 F,2 F,2 E,2 | F,2 G,2 F,2 F,E, | D,2 z2 F,3 B, | z4 z2 B,2 | B,2 z2 B,2 G,2 | A,2 C2 B,2 B,2 | %12
 B,2 z2 G,2 B,2 | A,2 C2 B,2 B,>A, | G,2 z2 z4 |] %15
V:5
 z4 E,3 E, | E,2 E,2 E,2 E,2 | B,,2 B,,2 F,3 E, | z2 G,2 B,,2 .E,2 | z4 E,3 E, | E,2 E,2 E,2 E,2 | %6
 B,,2 B,,2 D,2 C,2 | B,,2 E,2 z2 F,,2 | B,,2 z2 B,,3 B,, | E,2 E,2 D,2 .D,2 | z4 G,2 E,2 | %11
 z2 A,,2 B,,2 B,,2 | E,2 z2 E,2 G,2 | z2 A,,2 B,,2 B,,2 | E,2 z2 z4 |] %15
V:6
 x8 | x8 | x8 | A,2 B,2 B,2 z G, | x8 | x8 | x8 | x8 | x8 | B,2 G,2 B,2 z E, | x8 | x8 | x8 | x8 | %14
 x8 |] %15

